X:1
T: Lasses of Portsmouth
N:
C:
S:
A:
O:
R:
M:6/8
K:C
I:speed 150
%W: A1
% voice 1 (1 lines, 33 notes)
K:C
M:6/8
L:1/16
g4 e2 g4 e2 c2 d2 c2 e6 f4 e2 f4 e2 d2 e2 c2 B2 A2 G2 |g4 e2 g4 e2 c2 d2 c2 e6 d2 f2 e2 d2 c2 B2 c12 |
%W: A2
% voice 1 (1 lines, 33 notes)
g4 e2 g4 e2 c2 d2 c2 e6 f4 e2 f4 e2 d2 e2 c2 B2 A2 G2 |g4 e2 g4 e2 c2 d2 c2 e6 d2 f2 e2 d2 c2 B2 c12 |
%W: B1
% voice 1 (1 lines, 32 notes)
d4 d2 e4 c2 B2 c2 A2 G6 c2 G2 c2 e2 c2 e2 g4 e2 c6 |d4 d2 e4 c2 B2 c2 A2 G6 A2 B2 c2 d2 c2 B2 c12 |
%W: B2
% voice 1 (1 lines, 32 notes)
d4 d2 e4 c2 B2 c2 A2 G6 c2 G2 c2 e2 c2 e2 g4 e2 c6 |d4 d2 e4 c2 B2 c2 A2 G6 A2 B2 c2 d2 c2 B2 c12 ||
